X:504
T: MEIN FEINSLIEB IST VON FLANDERN
N: E0474
O: Europa, Mitteleuropa, Deutschland
R: Liebes - Lied, Klage
M: 4/4
L: 1/8
K: G
G2 | G2G2A2B2 | c4c2
BA | G2c2c2B2 | c4z2
G2 | G2G2A2B2 | c4c2
BA | G2c2c2B2 | c4z2
d2 | e2dcB3c | d2
d2d2d2 | A3Bc2
d2 | B2G2G2F2 | G4z2

@@@ Tune index: 4154
